X:1
T:James Gibb editions
T:White as lilies - Dowland
T:#
%%score [ 1 2 3 4 ]
L:1/8
Q:1/4=120
M:4/4
K:F
V:1 treble nm="Soprano" snm="S"
V:2 treble nm="Alto" snm="A"
V:3 treble-8 nm="Tenor" snm="T"
V:4 bass nm="Bass" snm="B"
V:1
"^White as lilies was her face""^John Dowland\n(1563-1626)" G4 G4 | B4 G4 | c4 B4 | A8 | G4 G4 | %5
w: White as|li- lies|was her|face,|When she|
w: When I|swore my|heart her|own,|she dis-|
w: Vows and|oaths and|faith as-|sured,|Con- stant|
w: Oh that|Love should|have the|art,|By sur-|
w: All in|vain is|la- dies'|love,|Quick- ly|
w: To thy-|self the|sweet- est|fair,|Thou hast|
w: By thine|er- ror|thou has|lost,|Heart un-|
w: For my|heart, though|set at|nought,|Since you|
[M:4/4] B4 G4 | B4 c4 | d2 d6 |: d4 d4 | f4 d4 | c4 B4 | A8 | G4 G4 | c4 B4 | A4 G4 | A6 A2 | %16
w: smi- led,|She be-|guil- ed?|Quit- ting|faith with|foul dís-|grace,|Vir- tue,|ser- vice|thus ne-|glect- ed,|
w: dain- ed,|I com-|plain- ed,|Yet she|left me|o- ver-|thrown,|Care- less|of my|bit- ter|griev- ing,|
w: e- ver,|Chang- ing|ne- ver,|Yet she|could not|be pro-|cured,|To be-|lieve my|pains ex-|ceed- ing,|
w: mis- es,|And dis-|guis- es,|To de-|stroy a|faith- ful|heart,|Or that|wan- ton-|look- ing|wo- men,|
w: choos- ed,|Short- ly|loos- ed,|For their|pride is|to re-|move,|Out a-|las their|looks first|won us,|
w: wound- ed|And con-|found- ed,|Change- less|faith with|soul's des-|pair,|And my|ser- vice|hath en-|vi- ed,|
w: feign- ed,|Truth un-|stain- ed,|And the|swain that|lov- ed|most|More as-|sured in|love than|ma- ny,|
w: will it,|Spoil and|kill it,|I will|ne- ver|change my|thoughts|But grieve|that beau-|ty e'er|was born,|
 B4 c4 | d8- | d4 (c2 B2) | A6 A2 | G2 G6 :| %21
w: Heart with|sor\-|* rows *|hath in-|fecet- ed.|
w: Ruth- less|bent|* to *|no re-|liev- ing.|
w: From her|scant|* ne\- *|glect pro-|ceed- ing.|
w: Should re-|ward|* their *|friends as|foe- men.|
w: And their|pride|* hath *|straight un-|done us.|
w: And my|suc\-|* cours *|hath de-|ni- ed.|
w: More de-|spised|* in *|love than|a- ny.|
w: And so|I'll|* live *|as one|for- lorn.|
V:2
 D4 D4 | D6 G2 | (E3 F) G4 | ^F8 | D4 D4 |[M:4/4] G6 D2 | G6 G2 | ^F2 F6 |: F4 F4 | D6 B2 | A4 G4 | %11
w: White as|li- lies|was * her|face,|When she|smi- led,|She be-|guil- ed,|Quit- ting|faith with|foul dis-|
w: When I|swore my|heart * her|own,|she dis-|dain- ed,|I com-|plain- ed,|Yet she|left me|o- ver-|
w: Vows and|oaths and|faith * as-|sured,|Con- stant|e- ver,|Chang- ing|ne- ver,|Yet she|could not|be pro-|
w: Oh that|Love should|have * the|art,|By sur-|mis- es,|And dis-|guis- es,|To de-|stroy a|faith- ful|
w: All in|vain is|la- * dies'|love,|Quick- ly|choos- ed,|Short- ly|loos- ed,|For their|pride is|to re-|
w: To thy-|self the|sweet- * est|fair,|Thou hast|wound- ed|And con-|found- ed,|Change- less|faith with|soul's des-|
w: By thine|er- ror|thou * has|lost,|Heart un-|feign- ed,|Truth un-|stain- ed,|And the|swain that|lov- ed|
w: For my|heart, though|set * at|nought,|Since you|will it,|Spoil and|kill it,|I will|ne- ver|change my|
 ^F8 | B6 G2 | A4 D4 | D6 G2 | F2 F2 z2 (C2 | _E2 (F2 G2 A2) | B8- | B4 A2 G2- | %19
w: grace,|Vir- tue,|ser- vice|thus ne-|glect- ed, Heart|* with * *|sor\-|* rows hath|
w: thrown,|Care less|of my|bit- ter|griev- ing, Ruth\-|* less * *|bent|* to no|
w: cured,|To be-|lieve my|pains ex-|ceed- ing, From|* her * *|scant|* ne- glect|
w: heart,|Or that|wan- ton-|look- ing|wo- men, Should|* re\- * *|ward|* their friends|
w: move,|Out a-|las their|looks first|won US, And|* their * *|pride|* hath straight|
w: pair,|And my|ser- vice|hath en-|vi- ed, And|* my * *|suc\-|* cours hath|
w: most|More as-|sured in|love than|ma- ny, More|* de- * *|spised|* m love|
w: thoughts|But grieve|that beau-|ty e'er|was born. And|* so * *|I'll|* live as|
 G2 ^FE !courtesy!^F4) | G2 G6 :| %21
w: * in\- * *|fect- ed.|
w: * re\- * *|liev- ing.|
w: * pro\- * *|ceed- ing.|
w: * as * *|foe- men.|
w: * un\- * *|done us.|
w: * de\- * *|ni- ed.|
w: * than * *|a- ny.|
w: * one * *|for- lorn.|
V:3
 G4 G4 | G4 d4 | c3 (A d4) | d8 | B4 B4 |[M:4/4][K:treble-8] d4 B2 B2- | B2 (A2 G4) | A2 A6 |: %8
w: White as|li- lies|was her *|face,|When she|smi- led, She|* be- *|guil- ed?|
w: When I|swore my|heart her *|own,|She dis-|dain- ed, I|* com- *|plain- ed,|
w: Vows and|oaths and|faith as\- *|sured,|Con- stant|e- ver, Chang-|* ing *|ne- ver,|
w: Oh that|Love should|have the *|art,|By sur-|mis- es, And|* dis- *|guis- es,|
w: All in|vain is|la- dies' *|love,|Quick- ly|choos- ed, Short-|* ly *|loos- ed,|
w: To thy-|self the|sweet- est *|fair,|Thou hast|wound- ed And|* con- *|found- ed,|
w: By thine|er- ror|thou has *|lost,|Heart un-|feign- ed, Truth|* un- *|stain- ed,|
w: For my|heart, though|set at *|nought,|Since you|will it, Spoil|* and *|kill it,|
 B4 B4 | B4 f4 | f4 d4 | d8 | d4 d4 | ^F4 G2 (g2 | f2) (d2 B2 c2) | A2 d2 f2 f2 | g6 (f_e) | f8- | %18
w: Quit- ting|faith with|foul dis-|grace,|Vir- tue,|ser- vice thus|* ne\- * *|glect- ed, Heart with|sor- rows, with|sor\-|
w: Yet she|left me|o- ver-|thrown,|Care- less|of my bit\-|* ter * *|griev- ing, Ruth- less|bent to, *|bent|
w: Yet she|could not|be pro-|cured,|To be-|lieve my pains|* ex\- * *|ceed- ing, From her|scant ne\- *|glect,|
w: To de-|stroy a|faith- ful|heart,|Or that|wan- ton- look\-|* ing * *|wo- men, Should re-|ward their, re-|ward|
w: For their|pride is|to re-|move,|Out a-|las their looks|* first * *|won us, And their|pride hath, their|pride|
w: Change- less|faith with|soul's des-|pair,|And my|ser- vice hath|* en\- * *|vi- ed, And my|suc- cours, my|suc\-|
w: And the|swain that|lov- ed|most|More as-|sured in love|* than * *|ma- ny, More de-|spised in, de-|spised|
w: I will|ne- ver|change my|thoughts|But grieve|that beau- ty|* e'er * *|was born, And so|I'll live as|one,|
 f4 _e4 | z4 d3 c | =B2 B6 :| %21
w: * rows|hath in-|fect- ed.|
w: * to|no re-|liev- ing.|
w: * ne-|glect pro-|ceed- ing.|
w: * their|friends as|foe- men.|
w: * hath|straight un-|done us.|
w: * cours|hath de-|ni- ed.|
w: * in|love than|a- ny.|
w: * live|as one|for- lorn.|
V:4
 G,,4 G,,4 | G,,4 B,,4 | A,,4 G,,4 | D,8 | G,,4 G,,4 |[M:4/4] G,,4 G,,2 G,2- | G,2 F,2 (_E,4 | %7
w: White as|li- lies|was her|face,|When she|smi- led, She|* be- guil\-|
w: When I|swore my|heart her|own,|She dis-|dain- ed, I|* com- plain\-|
w: Vows and|oaths and|faith as-|sured,|Con- stant|e- ver, Chang\-|* ing ne\-|
w: Oh that|Love should|have the|art,|By sur-|mis- es, And|* dis- guis-|
w: All in|vain is|la- dies'|love,|Quick- ly|choos- ed, Short\-|* ly loos\-|
w: To thy-|self the|sweet- est|fair,|Thou hast|wound- ed And|* con- found\-|
w: By thine|er- ror|thou has|lost,|Heart un-|feign- ed, Truth|* un- stain-|
w: For my|heart, though|set at|nought,|Since you|will it, Spoil|* and kill|
 D,2) D,6 |: B,,4 B,,4 | B,,6 B,,2 | F,4 G,4 | D,8 | G,,4 B,,4 | A,,4 G,,4 | D,4 _E,4 | D,6 F,2 | %16
w: * ed,|Quit- ting|faith with|foul dis-|grace,|Vir- tue,|ser- vice|thus ne-|glect- ed,|
w: * ed,|Yet she|left me|o- ver-|thrown,|Care- less|of my|bit- ter|griev- ing,|
w: * ver,|Yet she|could not|be pro-|cured,|To be-|lieve my|pains ex-|ceed- ing,|
w: * es,|To de-|stroy a|faith- ful|heart,|Or that|wan- ton-|look- ing|wo- men,|
w: * ed,|For their|pride is|to re-|move,|Out a-|las their|looks first|won us,|
w: * ed,|Change- less|faith with|soul's des-|pair,|And my|ser- vice|hath en-|vi- ed,|
w: * ed,|And the|swain that|lov- ed|most|More as-|sured in|love than|ma- ny,|
w: * it,|I will|ne- ver|change my|thoughts|But grieve|that beau-|ty e'er|was born.|
 _E,3 (D, C,4) | B,,8- | B,,4 C,4 | D,4 D,4 | G,,2 G,,6 :| %21
w: Heart with *|sor\-|* rows|hath in-|fect- ed.|
w: Ruth- less *|bent|* to|no re-|liev- ing.|
w: From her *|scant|* ne-|glect pro-|ceed- ing.|
w: Should re\- *|ward|* their|friends as|foe- men.|
w: And their *|pride|* hath|straight un-|done us.|
w: And my *|suc\-|* cours|hath de-|ni- ed.|
w: More de\- *|spised|* in|love than|a- ny.|
w: And so *|I'll|* live|as one|for- lorn.|

